src/pos-icons/silverware-clean.svg

<svg height="24" viewBox="0 0 24 24" width="24" xmlns="http://www.w3.org/2000/svg"><path d="m15 0-.62 1.37-1.38.63 1.38.63.62 1.37.63-1.37 1.37-.63-1.37-.63zm-4.5 2-1.09 2.41-2.41 1.09 2.41 1.09 1.09 2.41 1.1-2.41 2.4-1.09-2.4-1.09zm8.39 3.14c-1.33-.08-2.85.51-4.05 1.7-1.59 1.59-2.09 3.74-1.38 5.27l-9.76 9.76 1.41 1.41 6.89-6.87 6.88 6.88 1.41-1.41-6.88-6.88 1.47-1.47c1.53.71 3.68.21 5.27-1.38 1.91-1.91 2.28-4.65.81-6.12-.55-.53-1.28-.84-2.07-.89m-14.98.36c-1.56 1.56-1.56 4.09 0 5.66l4.19 4.18 2.83-2.84z"/></svg>

<?xml version="1.0" encoding="UTF-8"?><!DOCTYPE svg PUBLIC "-//W3C//DTD SVG 1.1//EN" "http://www.w3.org/Graphics/SVG/1.1/DTD/svg11.dtd"><svg xmlns="http://www.w3.org/2000/svg" xmlns:xlink="http://www.w3.org/1999/xlink" version="1.1" id="mdi-silverware-clean" width="24" height="24" viewBox="0 0 24 24"><path d="M15 0L14.38 1.37L13 2L14.38 2.63L15 4L15.63 2.63L17 2L15.63 1.37L15 0M10.5 2L9.41 4.41L7 5.5L9.41 6.59L10.5 9L11.6 6.59L14 5.5L11.6 4.41L10.5 2M18.89 5.14C17.56 5.06 16.04 5.65 14.84 6.84C13.25 8.43 12.75 10.58 13.46 12.11L3.7 21.87L5.11 23.28L12 16.41L18.88 23.29L20.29 21.88L13.41 15L14.88 13.53C16.41 14.24 18.56 13.74 20.15 12.15C22.06 10.24 22.43 7.5 20.96 6.03C20.41 5.5 19.68 5.19 18.89 5.14M3.91 5.5C2.35 7.06 2.35 9.59 3.91 11.16L8.1 15.34L10.93 12.5L3.91 5.5Z" /></svg>
